src/assets/filled/ArrowSquare.svg

<?xml version="1.0" encoding="UTF-8"?>
<svg width="24" height="24" viewBox="0 0 24 24" xmlns="http://www.w3.org/2000/svg">
 <path d="m16.19 2h-8.38c-3.64 0-5.81 2.17-5.81 5.81v8.37c0 3.65 2.17 5.82 5.81 5.82h8.37c3.64 0 5.81-2.17 5.81-5.81v-8.38c0.01-3.64-2.16-5.81-5.8-5.81zm3.16 6.84c-0.04 0.09-0.09 0.17-0.16 0.24l-1.8 1.8c-0.15 0.15-0.34 0.22-0.53 0.22s-0.38-0.07-0.53-0.22c-0.29-0.29-0.29-0.77 0-1.06l0.52-0.52h-0.15c-2.1 0-3.82 1.71-3.82 3.81v4.13c0 0.41-0.34 0.75-0.75 0.75s-0.75-0.34-0.75-0.75v-4.13c0-2.1-1.71-3.81-3.81-3.81h-0.42l0.52 0.52c0.29 0.29 0.29 0.77 0 1.06-0.15 0.15-0.34 0.22-0.53 0.22s-0.38-0.07-0.53-0.22l-1.8-1.8c-0.29-0.29-0.29-0.77 0-1.06l1.8-1.8c0.29-0.29 0.77-0.29 1.06 0s0.29 0.77 0 1.06l-0.52 0.52h0.43c1.95 0 3.64 1.07 4.56 2.64 0.92-1.57 2.61-2.64 4.57-2.64h0.15l-0.52-0.52c-0.29-0.29-0.29-0.77 0-1.06s0.77-0.29 1.06 0l1.8 1.8c0.07 0.07 0.12 0.15 0.16 0.24 0.07 0.19 0.07 0.4-0.01 0.58z"/>
</svg>

<svg width="24" height="24" viewBox="0 0 24 24"  xmlns="http://www.w3.org/2000/svg">
<path d="M16.19 2H7.81C4.17 2 2 4.17 2 7.81V16.18C2 19.83 4.17 22 7.81 22H16.18C19.82 22 21.99 19.83 21.99 16.19V7.81C22 4.17 19.83 2 16.19 2ZM19.35 8.84C19.31 8.93 19.26 9.01 19.19 9.08L17.39 10.88C17.24 11.03 17.05 11.1 16.86 11.1C16.67 11.1 16.48 11.03 16.33 10.88C16.04 10.59 16.04 10.11 16.33 9.82L16.85 9.3H16.7C14.6 9.3 12.88 11.01 12.88 13.11V15.07V17.24C12.88 17.65 12.54 17.99 12.13 17.99C11.72 17.99 11.38 17.65 11.38 17.24V15.07V13.11C11.38 11.01 9.67 9.3 7.57 9.3H7.15L7.67 9.82C7.96 10.11 7.96 10.59 7.67 10.88C7.52 11.03 7.33 11.1 7.14 11.1C6.95 11.1 6.76 11.03 6.61 10.88L4.81 9.08C4.52 8.79 4.52 8.31 4.81 8.02L6.61 6.22C6.9 5.93 7.38 5.93 7.67 6.22C7.96 6.51 7.96 6.99 7.67 7.28L7.15 7.8H7.58C9.53 7.8 11.22 8.87 12.14 10.44C13.06 8.87 14.75 7.8 16.71 7.8H16.86L16.34 7.28C16.05 6.99 16.05 6.51 16.34 6.22C16.63 5.93 17.11 5.93 17.4 6.22L19.2 8.02C19.27 8.09 19.32 8.17 19.36 8.26C19.43 8.45 19.43 8.66 19.35 8.84Z" />
</svg>
